X: 200
T: The Blackbird
N:"Slow" "2nd Setting" "collected by J. O'Neill"
B:O'Neill's 200
Z:Transcribed by henrik.norbeck@mailbox.swipnet.se
M:2/4
L:1/8
K:D
A|B2 {cB}A>^G|A2 (3ABc|d>c dA|G2 {AG}FG|
A2 {g}fd|{d}cA BG|F2 D>D|D2 z:|
A|de fg|a2 fa|g>f ga|g2 {ag}fe|
de fg|"~"(ag) fe|f2 d>d|.d(e fg)|
a>g fa|g2 {ag}fe|fd cA|f2 {gf}ed|
cA BG|F"~"B AG|F2 D>D|D2 z||
